X: 1
T: Laride
M: 4/4
L: 1/8
R: hornpipe
K: Edor
EB BA Bc BA|FG (3AGF AG E2|EB BA Bc BA|FG (3AGF AG EB|
M:3/4
BG E2 EF|\
M:4/4
G2 AB FG EB|BB EF GA/G/ EF|GF GA FG EB|
M:3/4
(3BFE FG EB|\
M:4/4
BB EF GA/G/ EF|GF GA FG E2|
